korla/apps/scalable/workspace-overview.svg

<!DOCTYPE svg  PUBLIC '-//W3C//DTD SVG 1.1//EN'  'http://www.w3.org/Graphics/SVG/1.1/DTD/svg11.dtd'>
<svg style="clip-rule:evenodd;fill-rule:evenodd;stroke-linecap:round;stroke-linejoin:round;stroke-miterlimit:1.5" version="1.1" viewBox="0 0 48 48" xmlns="http://www.w3.org/2000/svg">
 <rect x="1" y="6.645" width="46" height="34.71" style="fill:url(#_Linear1)"/>
 <path d="m21.961 17.061h4.078v6.13h6.13v4.079h-6.13v6.13h-4.078v-6.13h-6.13v-4.079h6.13" style="fill-rule:nonzero;fill:rgb(222,243,254)"/>
 <g transform="matrix(.806604 0 0 1 .915208 .86747)">
  <path d="m5.031 9.137h12.261" style="fill:none;stroke-opacity:.4;stroke-width:3.72px;stroke:white"/>
 </g>
 <defs>
  <linearGradient id="_Linear1" x2="1" gradientTransform="matrix(.384131 -42.435 42.435 .384131 25.0455 42.3761)" gradientUnits="userSpaceOnUse">
   <stop style="stop-color:rgb(25,124,241)" offset="0"/>
   <stop style="stop-color:rgb(32,188,250)" offset="1"/>
  </linearGradient>
 </defs>
</svg>

<?xml version="1.0" encoding="UTF-8" standalone="no"?>
<!DOCTYPE svg PUBLIC "-//W3C//DTD SVG 1.1//EN" "http://www.w3.org/Graphics/SVG/1.1/DTD/svg11.dtd">
<svg width="100%" height="100%" viewBox="0 0 48 48" version="1.1" xmlns="http://www.w3.org/2000/svg" xmlns:xlink="http://www.w3.org/1999/xlink" xml:space="preserve" xmlns:serif="http://www.serif.com/" style="fill-rule:evenodd;clip-rule:evenodd;stroke-linecap:round;stroke-linejoin:round;stroke-miterlimit:1.5;">
    <rect id="rect7" x="1" y="6.645" width="46" height="34.71" style="fill:url(#_Linear1);"/>
    <path id="path17" d="M21.961,17.061L26.039,17.061L26.039,23.191L32.169,23.191L32.169,27.27L26.039,27.27L26.039,33.4L21.961,33.4L21.961,27.27L15.831,27.27L15.831,23.191L21.961,23.191" style="fill:rgb(222,243,254);fill-rule:nonzero;"/>
    <g transform="matrix(0.806604,0,0,1,0.915208,0.86747)">
        <path d="M5.031,9.137L17.292,9.137" style="fill:none;stroke:white;stroke-opacity:0.4;stroke-width:3.72px;"/>
    </g>
    <defs>
        <linearGradient id="_Linear1" x1="0" y1="0" x2="1" y2="0" gradientUnits="userSpaceOnUse" gradientTransform="matrix(0.384131,-42.435,42.435,0.384131,25.0455,42.3761)"><stop offset="0" style="stop-color:rgb(25,124,241);stop-opacity:1"/><stop offset="1" style="stop-color:rgb(32,188,250);stop-opacity:1"/></linearGradient>
    </defs>
</svg>
